docs/img/hero/hero-icon-2.svg

<svg width="100" height="100" viewBox="0 0 100 100" fill="none" xmlns="http://www.w3.org/2000/svg">
<path d="M87.5 45.8333C87.5 68.9583 71.5 90.5833 50 95.8333C28.5 90.5833 12.5 68.9583 12.5 45.8333V20.8333L50 4.16666L87.5 20.8333V45.8333ZM50 87.5C65.625 83.3333 79.1667 64.75 79.1667 46.75V26.25L50 13.25L20.8333 26.25V46.75C20.8333 64.75 34.375 83.3333 50 87.5ZM41.6667 70.8333L25 54.1667L30.875 48.2917L41.6667 59.0417L69.125 31.5833L75 37.5" fill="white"/>
</svg>

<svg width="100" height="100" fill="none" xmlns="http://www.w3.org/2000/svg"><path d="M87.5 45.833c0 23.125-16 44.75-37.5 50-21.5-5.25-37.5-26.875-37.5-50v-25L50 4.167l37.5 16.666v25zM50 87.5c15.625-4.167 29.167-22.75 29.167-40.75v-20.5L50 13.25l-29.167 13v20.5c0 18 13.542 36.583 29.167 40.75zm-8.333-16.667L25 54.167l5.875-5.875 10.792 10.75 27.458-27.459L75 37.5" fill="#fff"/></svg>
